X:1
T:The Jack O'Lantern Girl.
T:The Jack O'Lantern Girl.
T:Music by VICTOR HERBERT
T:Lyric by GLEN MAC DONOUGH
T:Music suppliment of The Chicago Sunday America, SUNDAY, March 12, 1905=PAGES 5-8
T:Music suppliment of The Chicago Sunday America, SUNDAY, March 12, 1905=PAGES 5-8
T:Music suppliment of The Chicago Sunday America, SUNDAY, March 12, 1905=PAGES 5-8
T:Music suppliment of The Chicago Sunday America, SUNDAY, March 12, 1905=PAGES 5-8
C:VICTOR HERBERT
Z:GLEN MAC DONOUGH
Z:Music suppliment of The Chicago Sunday America, SUNDAY, March 12, 1905=PAGES 5-8
%%score 1 { 2 | 3 }
L:1/8
M:2/4
K:C
V:1 treble nm="Voice"
V:2 treble nm="Piano"
V:3 bass 
V:1
 z |[Q:1/4=144]"^Allegro" z4 | z4 | z4 | z2"^PARTHENIA." !fermata!z G | GA Bc | ^cd A z/ =c/ | %7
w: ||||Those|la- dy kill- ing|gen- tle- men Who|
w: |||||||
w: ||||Their|sor- rows deep they|tell to me Each|
 BF A z/ B/ | AE G z/ G/ | GA Bc | d_e =e z/ B/ | cE !>!B z/ A/ | A^G =G/ !fermata!z/ G | GA Bc | %14
w: spend their time in|hunt- ing hearts I|have en- coun- tered|now and then To|cap- ture mine they've|plied their arts. I|lis- ten to each|
w: |||||||
w: seeks the tri- bute|of a tear. Be-|cause they say my|sym- pa- thy To|them is ver- y|ver- y dear. I|hear them all with|
 !>!^cd A/ z/ z/ =c/ | BF A z/ B/ | AE G z/ G/ | GA Bc | d^d !tenuto!e>B | cE B z/ A/ | %20
w: touch- ing tale Of|pas- sion deep Of|fond hopes lost But|when I an- swer|nev- er fail to|al- ways keep my|
w: ||||||
w: down- cast eye From|which the tears Flow|forth un- forced They|do not note that|as I cry I|al- ways keep my|
[M:4/4]"^rit." d^c !fermata!d2 |"^Con Delicatezza" z3/2 e/ ^d>e G z e z | ^F z e z !>!d4 | %23
w: fin- gers crossed!|A sort of Jack O'|Lan- tern Girl|
w: |||
w: fin- gers crossed!|||
 z3/2 d/ ^c>d !>!A4 | z3/2 c/ B>c !>!G4 | z3/2 e/ ^d>e G z e z | e z _e z dB^GB | %27
w: I lead them here!|I lead them there!|A most e- lu- sive|elf am I to cap- ture|
w: ||||
w: ||||
 dA^GA!<(! B z A!<)! z |!>(! (!>!d4 G4)!>)! | z3/2 e/ _e>=e G z e z | ^F z e z d4 | %31
w: me they'll ev- er vain- ly|try _|A sort of Jack O'|Lan- tern Girl!|
w: ||||
w: ||||
 z3/2 d/ ^c>d A4 | z3/2 c/ B>c G4 | z3/2 e/ ^d>e G z e z | edfe dcBA | GceG e z d z | %36
w: I lead them here!|I lead them there!|Through diz- zy maze and|swirl and whirl they vain- ly fol- low|me, the Jack O' Lan- tern|
w: |||||
w: |||||
 (c4 c) z z2 |] %37
w: Girl! _|
w: |
w: |
V:2
 .[Gg] |!<(! .[Gg].[Aa] .[Bb].[cc']!<)! | %2
 ([^c^c']/[dd']/[ff']/).[ee']/"_accel." .[dd']/.[=c=c']/.[Bb]/.[Aa]/ | %3
 (.b/"_rit.".c'/.e'/.g'/) .e'.d' |!>(! (c'2 c'/)!>)! !fermata!z/!pp! [Gg] | %5
"_delicattissimo e" .[Gceg].[Acea] .[Beb].[cec'] | %6
"_molto rubato" .[^ca^c'].[dad'] .[Adfa] z/ [=c=c']/ | .[Bfb].[FAf] .[Afa] z/ [Bb]/ | %8
 [Aea].[Ece] .[Geg] z/ [Gg]/ | .[Gceg].[Acea] .[Beb].[cec'] | %10
 .[dgd'].[^dg^d'] .[e^gd'e'] z/ [Bb]/ | .[cec'] z !>![c^fb] z/ a/ | %12
"_rit." .[cdfa].[cdf^g] .[Bdfg]/ !fermata!z/ [Gg] | .[Gceg].[Acea] .[Beb].[cec'] | %14
 .[^ca^c'].[dad'] .[Adfa] z/ [Bb]/ | .[Bfb].[FBf] .[Afa] z/ [Gg]/ | .[Aea].[Ece] .[Gceg] z/ [Gg]/ | %17
 .[Gceg].[Acea] .[Beb].[cec'] | .[dgd'].[^dg^d'] .[e^gd'e'] z/ [Bb]/ | .[cec'].e .[c^fd'] z/ a/ | %20
[M:4/4]"_rit." [dfgd']!>(![^ceg^c']!>)! !fermata![dfgd']2 | %21
!pp! z3/2 [cec']/ [^d_g^d'] z/ [e=ge']/ [eg] z [cec'] z | [c^f] z [efc'e'] z [dfc'd']4 | %23
 z3/2 [fd']/ [f^c'] z/ [fd']/ !>![fa]4 | z3/2 .[ec']/ .[eb] z/ .[ec']/ !>![eg]4 | %25
 z3/2 .[cec']/ .[^dg^d'] z/ .[cec']/ .[eg] z .[ege'] z | .[egbe'] z .[_egb_e'] z .[dgbd'].b.^a.b | %27
 [d^fd']a^ga [c_eb] z [cfa] z | (!>![dfd']4 [dga]4) | %29
 z3/2 [ege']/ [^dg^d']/ z/ [ege'] [eg] z [ege'] z | [cf] z [e^fc'e'] z [dfc'd']4 | %31
 z3/2 [fd']/ [f^c'] z/ [fd']/ [fa]4 | z3/2 [ec']/ [eb]>[ec'] !>![eg]4 | %33
 z3/2 .[ege']/ .[^dg^d'] z/ .[ege']/ .[eg] z .[ege'] z | %34
!>(! ([eae'][dd'].[ff'])!>)!.[ee'] .[dd']!>(!.[cc'].[Bb].[Aa]!>)! | %35
 .[Gg].[cc'].[ee'].[gg'] .[ee'] z .[dd'] z |!pp! ([cec']4 [cec']2) z2 |] %37
V:3
 z | C,[G,CE] E,[G,C] | (F,[A,D]) z2 | [G,CE]2 [G,C^F][G,B,=F] | [CE]A, C,/ !fermata!z/ z | %5
 .C,.[G,CE] .E,.[G,C] | .[F,,F,].[G,B,] .[A,D] z | [D,,D,][G,B,F] [G,,,G,,] z | %8
 .[C,,C,].[E,G,C] .[G,CE] z | .C,.[G,CE] .E,.[G,C] | .B,,.[G,B,] !arpeggio![B,,E,^G,D] z | %11
 .A,,.[E,A,C] .[D,^F,C] z | .G,,.D, .[G,B,F]/ !fermata!z/ z | .C,.[G,CE] .E,.[G,B,E] | %14
 .[F,,F,].[F,A,] .[A,D] z | [D,,D,][G,B,F] [G,,,G,,] z | [C,,C,][E,G,C] [G,CE] z | %17
 .C,.[G,CE] .E,.[G,C] | .A,,.[G,B,] !arpeggio!.[B,,E,^G,D] z | [E,G,E]G, [E,^A,D] z/ C/ | %20
[M:4/4] [G,B,E][G,^A,^C] !fermata![G,B,F]2 | [C,,C,] z [G,CE] z [E,,E,] z [CE] z | %22
 [D,,D,] z [D,^F,C] z [D,F,C]4 | [G,,G,] z [G,B,] z !>![G,B,F]4 | %24
!f! [C,,C,] z [E,G,C] z !>![G,CE]4 | [C,,C,] z [G,CE] z [C,,C,] z [G,CE] z | %26
 [D,,D,] z [D,G,B,] z [G,B,D] z z2 | A,, z [D,^F,C] z D,, z [C^DF] z | ([G,F]2 C2 B,2 A,2) | %29
 [C,,C,] z [G,CE] z [E,,E,] z [CE] z | [D,,D,] z [D,^F,C] z [D,F,C]4 | %31
 [G,,G,] z [G,B,] z [G,B,F]4 | [C,,C,] z [E,G,C] z [G,CE]4 | [C,,C,] z [G,CE] z [E,,E,] z [CE] z | %34
 [F,,F,] z [F,A,D] z [F,A,D] z z2 | [G,CE]4 [G,C^F] z [G,B,=F] z | [CE] z (G,2 C,) z z2 |] %37

